Newaita/actions/16/action-love-amarok.svg

<svg height="16" viewBox="0 0 16 16" width="16" xmlns="http://www.w3.org/2000/svg"><path d="m4.960938 2.113281c-2.003907 0-3.632813 1.632813-3.632813 3.632813 0 2.40625 1.355469 4.445312 2.796875 5.882812.71875.71875 1.464844 1.296875 2.117188 1.699219.324218.203125.625.367187.894531.480469.273437.117187.496093.207031.800781.207031.308594 0 .527344-.089844.800781-.207031.273438-.113282.574219-.277344.898438-.480469.648437-.402344 1.394531-.980469 2.117187-1.699219 1.4375-1.4375 2.796875-3.476562 2.796875-5.882812 0-2-1.632812-3.632813-3.636719-3.632813-1.226562 0-2.316406.613281-2.976562 1.550781-.65625-.9375-1.746094-1.550781-2.976562-1.550781zm0 1.316407c1.296874 0 2.320312 1.023437 2.320312 2.316406-.003906.238281.121094.460937.324219.578125.207031.121093.460937.121093.664062 0 .207031-.117188.332031-.339844.328125-.578125 0-1.292969 1.023438-2.316406 2.316406-2.316406 1.296876 0 2.320313 1.023437 2.320313 2.316406 0 1.898437-1.125 3.664062-2.414063 4.953125-.644531.644531-1.324218 1.164062-1.882812 1.515625-.277344.171875-.527344.304687-.71875.386718-.132812.054688-.246094.082032-.28125.089844-.03125-.007812-.144531-.035156-.28125-.089844-.1875-.082031-.4375-.214843-.71875-.386718-.558594-.351563-1.238281-.871094-1.882812-1.515625-1.289063-1.289063-2.410157-3.054688-2.410157-4.953125 0-1.292969 1.019531-2.316406 2.316407-2.316406zm0 0" fill="#424242"/></svg>

<svg xmlns="http://www.w3.org/2000/svg" xmlns:xlink="http://www.w3.org/1999/xlink" width="16px" height="16px" viewBox="0 0 16 16" version="1.1">
<g id="surface1">
     <defs>
  <style id="current-color-scheme" type="text/css">
   .ColorScheme-Text { color:#424242; } .ColorScheme-Highlight { color:#eeeeee; }
  </style>
 </defs>
<path style="fill:currentColor" class="ColorScheme-Text" d="M 4.960938 2.113281 C 2.957031 2.113281 1.328125 3.746094 1.328125 5.746094 C 1.328125 8.152344 2.683594 10.191406 4.125 11.628906 C 4.84375 12.347656 5.589844 12.925781 6.242188 13.328125 C 6.566406 13.53125 6.867188 13.695312 7.136719 13.808594 C 7.410156 13.925781 7.632812 14.015625 7.9375 14.015625 C 8.246094 14.015625 8.464844 13.925781 8.738281 13.808594 C 9.011719 13.695312 9.3125 13.53125 9.636719 13.328125 C 10.285156 12.925781 11.03125 12.347656 11.753906 11.628906 C 13.191406 10.191406 14.550781 8.152344 14.550781 5.746094 C 14.550781 3.746094 12.917969 2.113281 10.914062 2.113281 C 9.6875 2.113281 8.597656 2.726562 7.9375 3.664062 C 7.28125 2.726562 6.191406 2.113281 4.960938 2.113281 Z M 4.960938 3.429688 C 6.257812 3.429688 7.28125 4.453125 7.28125 5.746094 C 7.277344 5.984375 7.402344 6.207031 7.605469 6.324219 C 7.8125 6.445312 8.066406 6.445312 8.269531 6.324219 C 8.476562 6.207031 8.601562 5.984375 8.597656 5.746094 C 8.597656 4.453125 9.621094 3.429688 10.914062 3.429688 C 12.210938 3.429688 13.234375 4.453125 13.234375 5.746094 C 13.234375 7.644531 12.109375 9.410156 10.820312 10.699219 C 10.175781 11.34375 9.496094 11.863281 8.9375 12.214844 C 8.660156 12.386719 8.410156 12.519531 8.21875 12.601562 C 8.085938 12.65625 7.972656 12.683594 7.9375 12.691406 C 7.90625 12.683594 7.792969 12.65625 7.65625 12.601562 C 7.46875 12.519531 7.21875 12.386719 6.9375 12.214844 C 6.378906 11.863281 5.699219 11.34375 5.054688 10.699219 C 3.765625 9.410156 2.644531 7.644531 2.644531 5.746094 C 2.644531 4.453125 3.664062 3.429688 4.960938 3.429688 Z M 4.960938 3.429688 "/>
</g>
</svg>
